web/packages/design/src/ResourceIcon/assets/atlassianbitbucket.svg

<svg width="72" height="72" viewBox="0 0 72 72" fill="none" xmlns="http://www.w3.org/2000/svg">
<path d="M2.3359 4.00068C1.99934 3.99634 1.66591 4.06572 1.35902 4.20396C1.05213 4.34219 0.779221 4.54593 0.55945 4.80086C0.33968 5.0558 0.178378 5.35575 0.0868678 5.67965C-0.00464189 6.00356 -0.0241404 6.34357 0.0297414 6.67582L9.81937 66.1054C9.94134 66.8327 10.3157 67.4937 10.8766 67.9724C11.4375 68.4511 12.1492 68.7168 12.8866 68.7229H59.8514C60.4042 68.73 60.9411 68.5384 61.3644 68.1828C61.7877 67.8272 62.0692 67.3314 62.1576 66.7858L71.9703 6.69888C72.0241 6.36664 72.0046 6.02662 71.9131 5.70272C71.8216 5.37881 71.6603 5.07886 71.4406 4.82393C71.2208 4.56899 70.9479 4.36526 70.641 4.22702C70.3341 4.08879 70.0007 4.0194 69.6641 4.02374L2.3359 4.00068ZM43.5584 46.9528H28.5684L24.5096 25.7593H47.1906L43.5584 46.9528Z" fill="#2684FF"/>
<path d="M68.8334 25.7598H47.1901L43.5579 46.9533H28.5679L10.8682 67.9739C11.4292 68.459 12.1444 68.7288 12.886 68.735H59.8624C60.4152 68.7421 60.9521 68.5504 61.3754 68.1948C61.7987 67.8393 62.0802 67.3435 62.1686 66.7978L68.8334 25.7598Z" fill="url(#paint0_linear_16885_15603)"/>
<defs>
<linearGradient id="paint0_linear_16885_15603" x1="73.8377" y1="31.6866" x2="38.0693" y2="59.6141" gradientUnits="userSpaceOnUse">
<stop offset="0.18" stop-color="#0052CC"/>
<stop offset="1" stop-color="#2684FF"/>
</linearGradient>
</defs>
</svg>

<svg xmlns="http://www.w3.org/2000/svg" width="72" height="72" fill="none" viewBox="0 0 72 72"><path fill="#2684ff" d="M2.336 4A2.306 2.306 0 0 0 .03 6.677l9.79 59.43a3.14 3.14 0 0 0 3.067 2.617H59.85a2.306 2.306 0 0 0 2.307-1.937L71.97 6.699a2.308 2.308 0 0 0-2.306-2.675zm41.222 42.953h-14.99L24.51 25.759h22.68z"/><path fill="url(#a)" d="M68.833 25.76H47.19l-3.632 21.193h-14.99l-17.7 21.02a3.13 3.13 0 0 0 2.018.762h46.976a2.306 2.306 0 0 0 2.307-1.937z"/><defs><linearGradient id="a" x1="73.838" x2="38.069" y1="31.687" y2="59.614" gradientUnits="userSpaceOnUse"><stop offset=".18" stop-color="#0052cc"/><stop offset="1" stop-color="#2684ff"/></linearGradient></defs></svg>
